X: 2
T:Strap Ball. JB.02
M:2/4
L:1/16
Q:100
S:James Biggins MS, Leeds, 1779.
R:Misc.
O:England
A:Yorkshire
N:Bar 14-4th note indistinct
Z:vmp.Nick Barber & Chris Partington
K:G
"No key sig. in ms"gdd2|ecc2|BdBG|FAFD|gdd2|ecc2|Eedc|d2D2:|!
|:DFAc|Bdgd|DFAc|Bdgd|ceac|Bdgd|BAGF|G2G,2:|]
